svgs/solid/chalkboard.svg

<svg xmlns="http://www.w3.org/2000/svg" viewBox="0 0 576 512"><!--! Font Awesome Pro 6.6.0 by @fontawesome - https://fontawesome.com License - https://fontawesome.com/license (Commercial License) Copyright 2024 Fonticons, Inc. --><path d="M96 32C60.7 32 32 60.7 32 96l0 288 64 0L96 96l384 0 0 288 64 0 0-288c0-35.3-28.7-64-64-64L96 32zM224 384l0 32L32 416c-17.7 0-32 14.3-32 32s14.3 32 32 32l512 0c17.7 0 32-14.3 32-32s-14.3-32-32-32l-128 0 0-32c0-17.7-14.3-32-32-32l-128 0c-17.7 0-32 14.3-32 32z"/></svg>

<svg xmlns="http://www.w3.org/2000/svg" viewBox="0 0 576 512"><!--! Font Awesome Pro 6.4.2 by @fontawesome - https://fontawesome.com License - https://fontawesome.com/license (Commercial License) Copyright 2023 Fonticons, Inc. --><path d="M96 32C60.7 32 32 60.7 32 96V384H96V96l384 0V384h64V96c0-35.3-28.7-64-64-64H96zM224 384v32H32c-17.7 0-32 14.3-32 32s14.3 32 32 32H544c17.7 0 32-14.3 32-32s-14.3-32-32-32H416V384c0-17.7-14.3-32-32-32H256c-17.7 0-32 14.3-32 32z"/></svg>
